X:7689
T:Allegretto
C:Ferdinando Carulli
O:Germany
Z:Transcribed by Frank Nordberg - http://www.musicaviva.com
F:http://abc.musicaviva.com/tunes/carulli-ferdinando/carulli-allegretto02.abc
V:1 program 1 24 up transpose -12
V:2 program 1 24 down merge transpose -12
M:C
L:1/8
K:C
V:1
zGce zGce|zedc Bcdc|zGBf zGBf|zfed ^cded|zGcg zGcg|zgfe dcBc|
V:2
C4C4|C2z2z4|D4D4|D2z2z4|E4E4|E2z2z4|
%
V:1
zAdf zAdf|zfed cBcA|zGce zGce|z8|zcBA Gzz2|z2[G2c2e2] z4|]
V:2
F4F4|F2z2z4|G,4G,4|G,A,B,C DEFD|C2z2 zFED|C4C2z2
W:
W:
W:  From Musica Viva - http://www.musicaviva.com
W:  the Internet center for free sheet music downloads.
